X: 28079
T: Mr Preston's
R: three-two
M: 3/2
K: Adorian
|:a4 g4 e4|a2 e4 dc BcdB|a4 g4 e4|g2 d4 G2BcdB:|
|:a2 e4 A2 c4|A2 e4 A2 BcdB|A2 e4 A2 c4|B2 g4 d2 BcdB:|
|:a e2 f d3 e c4|a2 e4 dc BcdB|a e2 f d3 e c4|g2 d4 G2 BcdB:|
|:A2 e2 cdec A2 e2|A2 e4 dc BcdB|a e2 f d3 e c4|f2 d4 G2 BcdB:|
|:A2 e2 cdec A2 e2|cdec A2 e2 BcdB|A2 e2 cdec A2 e2|d2 g2 d2 G2 BcdB:|
|:a2 c4 d2 e2 a2|c2 e2 A2 d2 BcdB|A2 c4 d2 e2 dc|B2 g2 d2 G2 BcdB:|
|:agfe fedc dcBA|a2 e4 dc BcdB|agfe fedc dcBA|g2 d4 G2 BcdB:|

